X:987
T:Reel 987
M:4/4
K:Gmaj
L:1/8
d2|d3e feBd|g2Be dcBd|G3c BGBd| (3efg ac' bgef|g2gd ecdB|c2ec BABc|GBdf egac'|bc'af g2|ga|bggf gfdb|agfg abc'a|bggf gbd'b|fdaf gfga|bgd'b e'bd'b|c'bag fgdc'|bgaf gedc|BcAB G2|
